;FLAVOR:Marlin
;TIME:5525
;Filament used: 0m, 5.62368m
;Layer height: 0.15
;MINX:80.348
;MINY:28.106
;MINZ:0.3
;MAXX:154.563
;MAXY:146.988
;MAXZ:21.9
;Generated with Cura_SteamEngine main
T1
M140 S60
M105
M190 S60
M104 S200
M105
M109 S200
M82 ;absolute extrusion mode
M605 S0 ; set x-carriage mode to independent control
T0 ; Switch to left extruder
M302 S130 P1
G28 X0 Y0 Z0; home all axes
G1 X210 Y40 Z0.1 F10000 ; go to wait position
G92 E0 ; reset extrusion distance
G1 X195 F5000 ; scrape off any ooze from heating
G1 Z7 ; move the bed down to avoid collision
G1 X-25 F5000 ; move T0 to home position

T1 ; switch to T1
M302 S130 P1
G1 X210 Y40 Z0.1 F10000 ; go to wait position
G92 E0 ; reset extrusion distance
G1 X195 F5000 ; scrape off any ooze from heating
G1 Z7 ; move the bed down to avoid collision
G28 X ; home T1 toolhead
G92 E0
T0
G1 X-25 F18000 ; park T0
T1
G1 X250 F18000 ; park T1 and start
G92 E0
G1 F1500 E-8
;LAYER_COUNT:145
;LAYER:0
M107
G0 F3600 X81.111 Y31.813 Z0.3
G0 X80.928 Y33.517
;TYPE:SKIRT
G1 F1500 E0
G1 F1800 X80.938 Y32.814 E0.04385
G1 X80.985 Y32.306 E0.07566
G1 X81.111 Y31.813 E0.10739
G1 X81.313 Y31.345 E0.13918
G1 X81.626 Y30.86 E0.17518
G1 X82.793 Y29.365 E0.29345
G1 X83.137 Y28.989 E0.32524
G1 X83.536 Y28.672 E0.35702
G1 X83.979 Y28.421 E0.38877
G1 X84.456 Y28.242 E0.42054
G1 X85.051 Y28.12 E0.45842
G1 X85.846 Y28.106 E0.50801
G1 X99.602 Y28.143 E1.36587
G1 X100.489 Y28.158 E1.42119
G1 X103.414 Y28.582 E1.60551
G1 X106.107 Y28.895 E1.77458
G1 X108.883 Y29.137 E1.94836
G1 X111.597 Y29.298 E2.11791
G1 X114.305 Y29.38 E2.28687
G1 X117.699 Y29.379 E2.49853
G1 X118.294 Y29.426 E2.53575
G1 X119.197 Y29.66 E2.59392
G1 X119.925 Y29.89 E2.64153
G1 X120.971 Y30.249 E2.7105
G1 X121.499 Y30.456 E2.74587
G1 X122.487 Y30.894 E2.81326
G1 X123.357 Y31.327 E2.87387
G1 X124.347 Y31.916 E2.94571
G1 X124.96 Y32.316 E2.99135
G1 X125.529 Y32.721 E3.03491
G1 X126.145 Y33.192 E3.08327
G1 X126.697 Y33.638 E3.12752
G1 X127.144 Y34.021 E3.16423
G1 X128.964 Y35.678 E3.31773
G1 X129.09 Y35.78 E3.32784
G1 X130.175 Y36.768 E3.41935
G1 X132.235 Y38.538 E3.58873
G1 X134.364 Y40.266 E3.75973
G1 X136.543 Y41.935 E3.9309
G1 X138.728 Y43.513 E4.09898
G1 X141.03 Y45.078 E4.27257
G1 X143.299 Y46.528 E4.4405
G1 X145.661 Y47.946 E4.6123
G1 X148.073 Y49.302 E4.78486
G1 X149.051 Y49.826 E4.85406
G1 X149.833 Y50.323 E4.91184
G1 X150.499 Y50.777 E4.96211
G1 X151.35 Y51.553 E5.03393
G1 X151.887 Y52.06 E5.07999
G1 X152.376 Y52.535 E5.1225
G1 X152.713 Y52.917 E5.15427
G1 X152.986 Y53.348 E5.18608
G1 X153.213 Y53.874 E5.22181
G1 X153.854 Y56.385 E5.38343
G1 X154.432 Y58.442 E5.51667
G1 X154.531 Y58.942 E5.54846
G1 X154.562 Y59.59 E5.58892
G1 X154.563 Y61.647 E5.7172
G1 X154.553 Y62.36 E5.76167
G1 X154.461 Y63.082 E5.80706
G1 X154.278 Y63.832 E5.8552
G1 X153.946 Y65.107 E5.93737
G1 X153.332 Y67.772 E6.10792
G1 X152.785 Y70.502 E6.28155
G1 X152.328 Y73.168 E6.45023
G1 X151.945 Y75.859 E6.61974
G1 X151.635 Y78.585 E6.79084
G1 X151.404 Y81.297 E6.96058
G1 X151.249 Y84.043 E7.1321
G1 X151.171 Y86.792 E7.30361
G1 X151.171 Y89.506 E7.47286
G1 X151.249 Y92.256 E7.64442
G1 X151.405 Y95.004 E7.81607
G1 X151.633 Y97.702 E7.98493
G1 X151.942 Y100.417 E8.15534
G1 X152.332 Y103.159 E8.32806
G1 X152.789 Y105.825 E8.49674
G1 X153.324 Y108.497 E8.66668
G1 X153.94 Y111.171 E8.83781
G1 X154.201 Y112.214 E8.90486
G1 X154.307 Y112.976 E8.95283
G1 X154.308 Y115.344 E9.10051
G1 X154.298 Y116.046 E9.14429
G1 X154.243 Y116.637 E9.18131
G1 X154.022 Y117.445 E9.23355
G1 X153.539 Y119.107 E9.34148
G1 X152.944 Y121.369 E9.48735
G1 X152.776 Y121.85 E9.51912
G1 X152.535 Y122.299 E9.5509
G1 X152.184 Y122.761 E9.58708
G1 X150.922 Y123.952 E9.6953
G1 X150.417 Y124.413 E9.73794
G1 X149.985 Y124.746 E9.77196
G1 X149.335 Y125.162 E9.82008
G1 X148.789 Y125.486 E9.85968
G1 X147.889 Y125.941 E9.92257
G1 X146.352 Y126.646 E10.02802
G1 X143.881 Y127.822 E10.19868
G1 X141.455 Y129.064 E10.36865
G1 X139.055 Y130.376 E10.53922
G1 X136.688 Y131.762 E10.71028
G1 X134.35 Y133.22 E10.88211
G1 X132.082 Y134.725 E11.05186
G1 X129.845 Y136.304 E11.22261
G1 X127.654 Y137.942 E11.39321
G1 X125.511 Y139.643 E11.56384
G1 X123.424 Y141.397 E11.73385
G1 X120.467 Y144.062 E11.9821
G1 X119.591 Y144.884 E12.05702
G1 X119.194 Y145.202 E12.08874
G1 X118.751 Y145.455 E12.12055
G1 X118.167 Y145.664 E12.15923
G1 X117.553 Y145.82 E12.19874
G1 X116.65 Y146.027 E12.25652
G1 X115.157 Y146.308 E12.35126
G1 X113.623 Y146.549 E12.4481
G1 X113.099 Y146.616 E12.48104
G1 X111.346 Y146.795 E12.59093
G1 X109.472 Y146.921 E12.70806
G1 X107.876 Y146.981 E12.80766
G1 X107.356 Y146.988 E12.84009
G1 X106.166 Y146.985 E12.91431
G1 X104.663 Y146.962 E13.00805
G1 X102.145 Y146.908 E13.16511
G1 X100.179 Y146.884 E13.28773
G1 X85.434 Y146.847 E14.20727
G1 X84.748 Y146.834 E14.25006
G1 X84.241 Y146.785 E14.28182
G1 X83.748 Y146.657 E14.31359
G1 X83.281 Y146.453 E14.34537
G1 X82.852 Y146.179 E14.37711
G1 X82.413 Y145.79 E14.41369
G1 X81.076 Y144.13 E14.54662
G1 X80.789 Y143.709 E14.57839
G1 X80.571 Y143.249 E14.61014
G1 X80.427 Y142.76 E14.64193
G1 X80.349 Y142.107 E14.68294
G1 X80.348 Y139.756 E14.82956
G1 X80.358 Y139.052 E14.87346
G1 X80.405 Y138.545 E14.90522
G1 X80.531 Y138.051 E14.93701
G1 X80.813 Y137.439 E14.97903
G1 X82.054 Y135.348 E15.13067
G1 X83.382 Y132.969 E15.30058
G1 X84.649 Y130.54 E15.47143
G1 X85.854 Y128.062 E15.64327
G1 X86.983 Y125.563 E15.81428
G1 X88.026 Y123.07 E15.98281
G1 X89.022 Y120.484 E16.15562
G1 X89.93 Y117.912 E16.32572
G1 X90.761 Y115.327 E16.49506
G1 X91.536 Y112.663 E16.66808
G1 X92.215 Y110.054 E16.8362
G1 X92.837 Y107.354 E17.00899
G1 X93.374 Y104.678 E17.1792
G1 X93.836 Y101.985 E17.3496
G1 X94.219 Y99.298 E17.51886
G1 X94.529 Y96.565 E17.69039
G1 X94.76 Y93.858 E17.85982
G1 X94.916 Y91.109 E18.03153
G1 X94.994 Y88.362 E18.20291
G1 X94.994 Y85.648 E18.37216
G1 X94.916 Y82.894 E18.54398
G1 X94.762 Y80.154 E18.71512
G1 X94.531 Y77.443 E18.8848
G1 X94.224 Y74.741 E19.05439
G1 X93.833 Y71.987 E19.22786
G1 X93.379 Y69.333 E19.39577
G1 X92.843 Y66.657 E19.56597
G1 X92.22 Y63.954 E19.73896
G1 X91.536 Y61.326 E19.90831
G1 X90.77 Y58.687 E20.07967
G1 X89.941 Y56.107 E20.24867
G1 X89.022 Y53.503 E20.42088
G1 X88.034 Y50.935 E20.59247
G1 X86.991 Y48.443 E20.76094
G1 X85.85 Y45.917 E20.9338
G1 X84.673 Y43.494 E21.10179
G1 X83.384 Y41.022 E21.27565
G1 X82.064 Y38.656 E21.44461
G1 X81.384 Y37.496 E21.52846
G1 X81.162 Y37.038 E21.5602
G1 X81.014 Y36.55 E21.592
G1 X80.928 Y35.855 E21.63568
G1 X80.928 Y33.517 E21.78148
G1 F1500 E13.78148
G0 F3600 X83.513 Y35
G0 X84.076 Y35
;TYPE:SUPPORT
G1 F1500 E21.78148
G1 F1800 X100.413 Y35 E22.8003
G0 F3600 X100 Y37.494
G1 F1800 X100 Y31.295 E23.18689
G1 F1500 E15.18689
G0 F3600 X100.001 Y30.729
G0 X95.001 Y30.717
G0 X95 Y31.281
G1 F1500 E23.18689
G1 F1800 X95 Y37.481 E23.57354
G1 F1500 E15.57354
G0 F3600 X94.999 Y38.048
G0 X90.099 Y38.036
G0 X90 Y37.469
G1 F1500 E23.57354
G1 F1800 X90 Y31.268 E23.96025
G1 F1500 E15.96025
G0 F3600 X90.001 Y30.704
G0 X84.696 Y30.7
G0 X84.698 Y32.203
G0 X85 Y32.714
G1 F1500 E23.96025
G1 F1800 X85 Y35.968 E24.16318
G1 F1500 E16.16318
G0 F3600 X84.728 Y36.509
G0 X84.73 Y38.007
G0 X133.762 Y52.042
G0 X135.022 Y52.494
G0 X135 Y53.165
G1 F1500 E24.16318
G1 F1800 X135 Y53.898 E24.20889
G1 F1500 E16.20889
G0 F3600 X134.66 Y54.35
G0 X135.772 Y55.175
G0 X140.021 Y50.925
G0 X139.218 Y50.123
G0 X139.926 Y49.17
G0 X146.445 Y51.352
G0 X146.725 Y54.993
G0 X147.288 Y55
G1 F1500 E24.20889
G1 F1800 X150.216 Y55 E24.39149
G0 F3600 X150 Y54.612
G1 F1800 X150 Y67.063 E25.16796
G0 F3600 X150.174 Y65
G1 F1800 X147.258 Y65 E25.34981
G1 F1500 E17.34981
G0 F3600 X146.694 Y65
G0 X146.696 Y60
G0 X147.26 Y60
G1 F1500 E25.34981
G1 F1800 X151.411 Y60 E25.60868
G1 F1500 E17.60868
G0 F3600 X151.978 Y60
G0 X151.969 Y62.406
G0 X150.523 Y110.003
G0 X149.954 Y110
G1 F1500 E25.60868
G1 F1800 X146.38 Y110 E25.83157
G1 F1500 E17.83157
G0 F3600 X145.817 Y109.992
G0 X145.867 Y107.634
G0 X150.524 Y107.644
G0 X150.497 Y112.352
G0 X150 Y112.67
G1 F1500 E25.83157
G1 F1800 X150 Y116.804 E26.08937
G0 F3600 X151.156 Y115
G1 F1800 X146.297 Y115 E26.39239
G1 F1500 E18.39239
G0 F3600 X145.733 Y114.992
G0 X145.649 Y119.992
G0 X146.213 Y120
G1 F1500 E26.39239
G1 F1800 X149.915 Y120 E26.62326
G1 F1500 E18.62326
G0 F3600 X150.481 Y120.003
G0 X148.623 Y122.564
G0 X147.653 Y123.168
G0 X146.736 Y123.641
G0 X145.598 Y124.12
G0 X143.94 Y124.513
G0 X142.473 Y124.505
G0 X140.64 Y118.913
G0 X140 Y118.915
G1 F1500 E26.62326
G1 F1800 X140 Y108.174 E27.2931
G0 F3600 X140.056 Y110
G1 F1800 X139.404 Y110 E27.33376
G1 F1500 E19.33376
G0 F3600 X138.84 Y110
G0 X138.839 Y115
G0 X139.403 Y115
G1 F1500 E27.33376
G1 F1800 X140.067 Y115 E27.37517
G1 F1500 E19.37517
G0 F3600 X140.632 Y114.998
G0 X140.633 Y119.284
G0 X138.982 Y119.861
G0 X138.414 Y120
G1 F1500 E27.37517
G1 F1800 X136.831 Y120 E27.47389
G0 F3600 X135 Y121.165
G1 F1800 X135 Y125.95 E27.77229
G0 F3600 X137.204 Y125
G1 F1800 X131.146 Y125 E28.15009
G0 F3600 X130 Y126.074
G1 F1800 X130 Y126.442 E28.17304
G1 F1500 E20.17304
G0 F3600 X130.059 Y127.002
G0 X127.584 Y129.79
G0 X126.803 Y130
G1 F1500 E28.17304
G1 F1800 X125.159 Y130 E28.27556
G1 X125 Y130.138
G1 X125 Y132.592 E28.4286
G1 F1500 E20.4286
G0 F3600 X125.298 Y133.13
G0 X123.804 Y134.606
G0 X122.915 Y135.387
G0 X122.502 Y135
G1 F1500 E28.4286
G1 F1800 X119.469 Y135 E28.61775
G0 F3600 X120 Y134.6
G1 F1800 X120 Y137.233 E28.78195
G1 F1500 E20.78195
G0 F3600 X120.269 Y137.861
G0 X119.621 Y138.833
G0 X118.949 Y139.758
G0 X118.267 Y139.999
G1 F1500 E28.78195
G1 F1800 X83.497 Y139.999 E30.9503
G0 F3600 X85 Y137.494
G1 F1800 X85 Y143.693 E31.33689
G1 F1500 E23.33689
G0 F3600 X85.012 Y144.261
G0 X89.999 Y144.276
G0 X90 Y143.706
G1 F1500 E31.33689
G1 F1800 X90 Y137.508 E31.72341
G1 F1500 E23.72341
G0 F3600 X90.001 Y136.944
G0 X95.001 Y136.956
G0 X95 Y137.521
G1 F1500 E31.72341
G1 F1800 X95 Y143.719 E32.10994
G1 F1500 E24.10994
G0 F3600 X94.999 Y144.288
G0 X99.999 Y144.299
G0 X100 Y143.732
G1 F1500 E32.10994
G1 F1800 X100 Y137.534 E32.49646
G1 F1500 E24.49646
G0 F3600 X100.001 Y136.968
G0 X105.004 Y137.006
G0 X105 Y137.572
G1 F1500 E32.49646
G1 F1800 X105 Y143.817 E32.88592
G1 F1500 E24.88592
G0 F3600 X104.993 Y144.383
G0 X106.912 Y144.383
G0 X110.026 Y144.306
G0 X110 Y143.743
G1 F1500 E32.88592
G1 F1800 X110 Y137.546 E33.27238
G1 F1500 E25.27238
G0 F3600 X109.977 Y136.984
G0 X114.885 Y136.454
G0 X115 Y137.006
G1 F1500 E33.27238
G1 F1800 X115 Y143.138 E33.65479
G1 F1500 E25.65479
;MESH:JawLink.STL
G0 F3600 X115.097 Y143.693
G0 X117.883 Y143.078
G0 X142.462 Y123.731
G0 X143.251 Y123.732
;TYPE:WALL-OUTER
G1 F1500 E33.65479
G1 F2083.3 X143.288 Y123.13 E33.68728
G1 F2017.9 X143.325 Y122.527 E33.72089
G1 F1956.5 X143.363 Y121.924 E33.75556
G1 F1948.1 X143.353 Y121.3 E33.79152
G1 F1995.6 X143.343 Y120.676 E33.82662
G1 F2040.8 X143.333 Y120.052 E33.86095
G1 F2093 X143.322 Y119.428 E33.89442
G1 F2117.6 X143.328 Y119.244 E33.90418
G0 F3600 X143.007 Y118.557
G0 X142.59 Y111.752
G0 X142.363 Y111.761
;TYPE:WALL-INNER
G1 F1241.4 X142.372 Y112.264 E33.94967
G1 F1289.4 X142.382 Y112.768 E33.99356
G1 F1341.3 X142.392 Y113.272 E34.03575
G1 F1397.5 X142.402 Y113.776 E34.07624
G1 F1458.7 X142.412 Y114.28 E34.11503
G1 F1522.8 X142.421 Y114.784 E34.15219
G1 F1595.7 X142.431 Y115.288 E34.18765
G1 F1676 X142.441 Y115.792 E34.22141
G1 F1764.7 X142.451 Y116.296 E34.25348
G1 F1863.4 X142.461 Y116.8 E34.28384
G1 F1973.7 X142.471 Y117.304 E34.31252
G1 F1412.9 X142.689 Y117.81 E34.35629
G1 X142.914 Y117.307 E34.40007
G1 F1973.7 X142.931 Y116.804 E34.42869
G1 F1863.4 X142.948 Y116.3 E34.45907
G1 F1764.7 X142.965 Y115.796 E34.49115
G1 F1676 X142.982 Y115.293 E34.52486
G1 F1595.7 X142.999 Y114.789 E34.56033
G1 F1522.8 X143.016 Y114.285 E34.59751
G1 F1458.7 X143.033 Y113.781 E34.63631
G1 F1397.5 X143.05 Y113.278 E34.67674
G1 F1341.3 X143.067 Y112.774 E34.71894
G1 F1289.4 X143.084 Y112.27 E34.76285
G1 F1241.4 X143.102 Y111.766 E34.80845
G1 F1454 X143.252 Y111.276 E34.84801
G1 F1800 X143.388 Y109.033 E34.98815
G1 X142.115 Y109.03 E35.06754
G1 X142.219 Y111.268 E35.20726
G1 F1454 X142.363 Y111.761 E35.24691
G0 F3600 X142.59 Y111.752
G0 X143.005 Y117.855
G0 X143.353 Y117.877
;TYPE:WALL-OUTER
G1 F1800 X143.92 Y108.534 E35.83064
G1 X141.591 Y108.528 E35.97588
G1 X142.042 Y118.274 E36.58432
G1 X142.222 Y118.496 E36.60214
G1 F1836.7 X142.729 Y118.771 E36.63739
G1 F1906.8 X143.236 Y119.047 E36.67137
G1 F1948.1 X143.307 Y119.199 E36.68104
G1 F1910.8 X143.33 Y118.538 E36.7199
G1 F1836.7 X143.353 Y117.877 E36.76032
G0 F3600 X143.368 Y117.628
G0 X143.02 Y117.606
G0 X142.736 Y111.182
;TYPE:SKIN
G1 F1463.4 X142.74 Y110.666 E36.7999
G1 F1343.3 X142.744 Y110.15 E36.84302
G1 F1243.1 X142.748 Y109.634 E36.88962
G0 F3600 X142.595 Y109.77
G1 F1500 E28.88962
G0 F3600 X141.864 Y108.791
G0 X141.866 Y107.613
G0 X141.96 Y67.612
G0 X141.962 Y66.427
G0 X141.474 Y56.379
G1 F1500 E36.88962
G0 F3600 X141.124 Y56.38
;TYPE:WALL-INNER
G1 F1800 X141.201 Y66.194 E37.50166
G1 X144.649 Y66.202 E37.71669
G1 X144.949 Y56.067 E38.34901
G1 X145.012 Y52.714 E38.55815
G1 X145.018 Y52.393 E38.57818
G1 X144.678 Y52.292 E38.60029
G1 X143.862 Y52.112 E38.65241
G1 X142.811 Y51.963 E38.7186
G1 X142.105 Y51.812 E38.76363
G1 X141.703 Y51.676 E38.79009
G1 X141.727 Y52.065 E38.8144
G1 X141.445 Y52.939 E38.87167
G1 X141.397 Y53.984 E38.93691
G1 X140.611 Y55.761 E39.05808
G1 X140.959 Y55.998 E39.08434
G1 X141.073 Y56.194 E39.09848
G1 X141.124 Y56.38 E39.11051
G0 F3600 X140.569 Y56.312
;TYPE:WALL-OUTER
G1 F1800 X140.625 Y56.467 E39.12079
G1 X140.705 Y66.693 E39.75853
G1 X145.135 Y66.703 E40.0348
G1 X145.449 Y56.077 E40.69775
G1 X145.512 Y52.723 E40.90695
G1 X145.525 Y52.023 E40.95061
G1 X144.82 Y51.811 E40.99653
G1 X143.951 Y51.62 E41.05201
G1 X142.863 Y51.465 E41.12055
G1 X142.183 Y51.315 E41.16397
G1 X141.439 Y51.053 E41.21316
G1 X141.006 Y50.846 E41.2431
G1 X141.23 Y51.297 E41.2745
G1 X141.242 Y51.458 E41.28457
G1 X141.187 Y51.672 E41.29835
G1 X141.225 Y51.992 E41.31844
G1 X140.949 Y52.849 E41.37459
G1 X140.899 Y53.876 E41.43871
G1 X139.928 Y56.067 E41.58817
G1 X140.449 Y56.23 E41.62221
G1 X140.569 Y56.312 E41.63127
G0 F3600 X140.625 Y56.467
G0 X140.625 Y56.553
G0 X141.475 Y56.548
G0 X141.517 Y56.024
;TYPE:SKIN
G1 F1800 X141.6 Y56.351 E41.65231
G1 X141.673 Y65.719 E42.23655
G1 X144.187 Y65.725 E42.39333
G1 X144.473 Y56.069 E42.99577
G1 X144.521 Y53.49 E43.15663
G1 X144.535 Y52.749 E43.20285
G1 X143.776 Y52.58 E43.25134
G1 X142.655 Y52.42 E43.32196
G1 X142.146 Y52.309 E43.35444
G1 X141.917 Y53.023 E43.40121
G1 X141.867 Y54.1 E43.46844
G1 X141.202 Y55.6 E43.57077
G1 X141.35 Y55.731 E43.58309
G1 X141.517 Y56.024 E43.60412
G0 F3600 X144.278 Y53.061
G1 F1800 X144.133 Y52.916 E43.61691
G0 F3600 X144.265 Y53.755
G1 F1800 X143.27 Y52.76 E43.70467
G0 F3600 X142.445 Y52.643
G1 F1800 X144.251 Y54.449 E43.86395
G0 F3600 X144.239 Y55.143
G1 F1800 X142.164 Y53.069 E44.0469
G0 F3600 X142.131 Y53.743
G1 F1800 X144.225 Y55.837 E44.23158
G0 F3600 X144.208 Y56.526
G1 F1800 X142.029 Y54.348 E44.42371
G0 F3600 X141.812 Y54.838
G1 F1800 X144.187 Y57.213 E44.63318
G0 F3600 X144.167 Y57.9
G1 F1800 X141.594 Y55.327 E44.8601
G0 F3600 X141.847 Y56.287
G1 F1800 X144.147 Y58.587 E45.06295
G0 F3600 X144.126 Y59.273
G1 F1800 X141.854 Y57.001 E45.26332
G0 F3600 X141.859 Y57.714
G1 F1800 X144.106 Y59.96 E45.46145
G0 F3600 X144.085 Y60.647
G1 F1800 X141.865 Y58.426 E45.65729
G0 F3600 X141.871 Y59.139
G1 F1800 X144.065 Y61.334 E45.85083
G0 F3600 X144.045 Y62.021
G1 F1800 X141.876 Y59.851 E46.04217
G0 F3600 X141.881 Y60.564
G1 F1800 X144.024 Y62.707 E46.23117
G0 F3600 X144.004 Y63.394
G1 F1800 X141.887 Y61.277 E46.41787
G0 F3600 X141.892 Y61.989
G1 F1800 X143.984 Y64.081 E46.60238
G0 F3600 X143.964 Y64.768
G1 F1800 X141.897 Y62.701 E46.78467
G0 F3600 X141.903 Y63.414
G1 F1800 X143.943 Y65.454 E46.96459
G0 F3600 X143.253 Y65.471
G1 F1800 X141.909 Y64.127 E47.08312
G0 F3600 X141.914 Y64.84
G1 F1800 X142.544 Y65.47 E47.13869
G0 F3600 X142.544 Y65.448
G1 F1500 E39.13869
G0 F3600 X140.887 Y56.09
G0 X139.721 Y56.951
G0 X138.694 Y56.623
G0 X136.356 Y48.467
G0 X136.285 Y47.237
G0 X133.752 Y45.768
